build/img/img-works-2.svg

<?xml version="1.0" encoding="UTF-8"?>
<svg width="61px" height="54px" viewBox="0 0 61 54" version="1.1" xmlns="http://www.w3.org/2000/svg" xmlns:xlink="http://www.w3.org/1999/xlink">
    <!-- Generator: Sketch 47.1 (45422) - http://www.bohemiancoding.com/sketch -->
    <title>works-2</title>
    <desc>Created with Sketch.</desc>
    <defs></defs>
    <g id="Symbols" stroke="none" stroke-width="1" fill="none" fill-rule="evenodd">
        <g id="works-2" fill-rule="nonzero" fill="#FFFFFF">
            <path d="M17.7958689,48.3311487 C20.4373572,48.3358529 22.9511541,49.4653843 24.7050442,51.4356675 L24.922901,51.6591928 C25.2042728,51.9514668 25.5081236,52.2213476 25.8316754,52.4663677 C25.9623896,52.5595033 26.0868792,52.6526388 26.2051444,52.7271473 C26.4863202,52.9138115 26.7795041,53.0818185 27.0827964,53.2300793 L27.2570819,53.3107968 C27.4189184,53.3915143 27.5807549,53.4598137 27.7550404,53.5219041 C27.9689029,53.6022888 28.1870997,53.6706948 28.4086111,53.7268023 C28.5579986,53.7702656 28.7571821,53.8261469 28.9937124,53.8696102 C29.330612,53.9362019 29.6716771,53.9797665 30.0145275,54 L30.4938126,54 C31.0081236,53.9991536 31.5210684,53.9471544 32.0250352,53.8447741 C32.2242187,53.8075198 32.3922797,53.7640566 32.4794224,53.7330114 C32.7412614,53.6675415 32.9989899,53.5866828 33.2512582,53.4908589 L33.3072786,53.4908589 L33.6931965,53.3232149 L33.8488085,53.2487065 C34.1787912,53.0915795 34.4970558,52.9110546 34.8011543,52.7085202 L35.1310519,52.4787858 C35.4785397,52.2143704 35.8033364,51.9215326 36.1020711,51.6033115 L36.307479,51.3797861 C38.0430766,49.427293 40.5384406,48.316217 43.1544095,48.3311487 L45.6939982,48.3311487 C46.5534199,48.3311487 47.2501188,47.6361785 47.2501188,46.7788893 C47.2501188,45.9216001 46.5534199,45.2266299 45.6939982,45.2266299 L43.1855319,45.2266299 C39.6575355,45.2090969 36.2950319,46.7174499 33.9670737,49.3618489 L33.9110534,49.4239393 L33.8612575,49.4736116 C33.6692932,49.6669736 33.4610463,49.8435443 33.2388093,50.0013798 L33.0520748,50.1317696 C32.8533313,50.2589729 32.6452593,50.371053 32.4296266,50.4670576 L32.3300349,50.5167299 L32.0872801,50.6222835 C31.9345886,50.6789136 31.778711,50.7265975 31.6204439,50.7650914 L31.3527912,50.8271818 C31.0516454,50.8884372 30.7451345,50.9196363 30.4377923,50.9203174 L30.1639151,50.9203174 C29.9548019,50.9078955 29.7468134,50.8809241 29.5414668,50.8395999 C29.4107527,50.8395999 29.3049365,50.7837185 29.1742224,50.7464643 C29.0456474,50.7138949 28.9189032,50.6745152 28.794529,50.6284926 L28.5144273,50.5105209 L28.4023866,50.4546395 C28.2151401,50.3633142 28.0342263,50.2595988 27.8608566,50.1441877 L27.6990201,49.9827527 C27.4997172,49.8318446 27.3124234,49.6657742 27.1388167,49.4860297 L27.0205515,49.3618489 C24.6730895,46.7426333 21.3179478,45.2453733 17.7958689,45.245257 L3.11231532,45.245257 L3.11231532,9.91583305 L6.99639223,9.91583305 L6.99639223,39.1479821 C6.99639223,40.0052713 7.69309113,40.7002415 8.55251278,40.7002415 L18.2315826,40.7002415 C22.4710746,40.7050528 26.5076411,42.5116936 29.3298344,45.6674715 C29.700096,46.0811799 30.2634916,46.2664202 30.8077956,46.153414 C31.3520996,46.0404079 31.7946192,45.6463238 31.9686615,45.1196093 C32.1427039,44.5928948 32.0218279,44.0135704 31.6515663,43.599862 C28.2445014,39.7728145 23.3625843,37.5773371 18.2315826,37.5646775 L10.1086333,37.5646775 L10.1086333,3.12314591 L18.2315826,3.12314591 C22.2674894,3.12695481 26.1289426,4.7649527 28.9314676,7.6619524 L28.9314676,11.2073129 C28.9314676,12.0646021 29.6281665,12.7595723 30.4875881,12.7595723 C31.3470098,12.7595723 32.0437087,12.0646021 32.0437087,11.2073129 L32.0437087,7.65574336 C34.8462337,4.75874366 38.7076869,3.12074577 42.7435936,3.11693687 L50.8727674,3.11693687 L50.8727674,16.0068989 C50.8727674,16.8641881 51.5694663,17.5591583 52.428888,17.5591583 C53.2883096,17.5591583 53.9850085,16.8641881 53.9850085,16.0068989 L53.9850085,9.91583305 L57.8877589,9.91583305 L57.8877589,36.664367 C57.8877589,37.5216562 58.5844578,38.2166264 59.4438794,38.2166264 C60.3033011,38.2166264 61,37.5216562 61,36.664367 L61,9.15833046 C61,8.53586306 60.7521107,7.9388903 60.3108649,7.49873938 C59.8696192,7.05858846 59.2711615,6.81131425 58.6471457,6.81131425 L53.9850085,6.81131425 L53.9850085,1.5522594 C53.9850085,0.694970206 53.2883096,0 52.428888,0 L42.7498181,0 C38.2024734,0.00816981987 33.826479,1.73160018 30.5000371,4.82442221 C27.1660115,1.73400684 22.7828423,0.01703318 18.2315826,0.0186271128 L8.55251278,0.0186271128 C7.70033106,0.0185659058 7.0066184,0.702253379 6.99639223,1.5522594 L6.99639223,6.79268713 L2.35292849,6.79268713 C1.72566383,6.79266743 1.12435875,7.04249697 0.682572249,7.48668483 C0.240785746,7.93087268 -0.0049040857,8.53264193 7.42055003e-05,9.15833046 L7.42055003e-05,45.9903415 C7.42055003e-05,47.2865628 1.05348295,48.3373577 2.35292849,48.3373577 L17.7958689,48.3311487 Z" id="Shape"></path>
            <path d="M50.6032281,34.5343827 C53.7809673,28.3649496 51.9915168,20.8000149 46.3865821,16.7084347 C40.7816474,12.6168545 33.031864,13.2181861 28.1250581,18.1254074 C23.2182523,23.0326286 22.6169716,30.7830681 26.7082054,36.3884773 C30.7994393,41.9938865 38.3637335,43.7834886 44.5326444,40.6054804 L53.6667116,49.7403209 C54.7511169,50.8259372 56.3322692,51.2505157 57.8145636,50.8541218 C59.296858,50.4577279 60.4550988,49.3005832 60.8529879,47.818573 C61.2508769,46.3365627 60.8279655,44.7548395 59.7435601,43.6692232 L50.6032281,34.5343827 Z M30.3491546,35.8313045 C26.6550277,32.1367294 26.084942,26.3469187 28.98754,22.0026962 C31.890138,17.6584738 37.4570034,15.9697694 42.2836571,17.9693292 C47.1103108,19.968889 49.8524588,25.0998063 48.8331097,30.2242107 C47.8137606,35.3486152 43.3168181,39.0392851 38.0924379,39.0391497 C35.1864689,39.0474004 32.3980602,37.8922337 30.3491546,35.8313045 L30.3491546,35.8313045 Z M57.5258237,47.5223966 C57.0661749,47.9599748 56.3440968,47.9599748 55.8844481,47.5223966 L47.2139755,38.8261287 C47.5084207,38.5755158 47.7966012,38.3186376 48.0722521,38.0429634 C48.3479029,37.7672892 48.6047594,37.4790844 48.8553511,37.1846142 L57.5258237,45.8808821 C57.7438866,46.0983463 57.8664451,46.3936618 57.8664451,46.7016393 C57.8664451,47.0096169 57.7438866,47.3049324 57.5258237,47.5223966 L57.5258237,47.5223966 Z" id="Shape"></path>
        </g>
    </g>
</svg>

<svg width="61" height="54" viewBox="0 0 61 54" xmlns="http://www.w3.org/2000/svg"><title>works-2</title><g id="Symbols" fill="none" fill-rule="evenodd"><g id="works-2" fill-rule="nonzero" fill="#FFF"><path d="M17.796 48.331a9.272 9.272 0 0 1 6.909 3.105l.218.223c.281.292.585.562.909.807.13.094.255.187.373.261.281.187.575.355.878.503l.174.08c.162.082.324.15.498.212.214.08.432.149.654.205.149.043.348.1.585.143.337.066.678.11 1.02.13h.48a7.72 7.72 0 0 0 1.531-.155c.2-.037.367-.08.454-.112a6.86 6.86 0 0 0 .772-.242h.056l.386-.168.156-.074c.33-.157.648-.338.952-.54l.33-.23c.348-.265.672-.557.971-.876l.205-.223a9.092 9.092 0 0 1 6.847-3.049h2.54c.86 0 1.556-.695 1.556-1.552 0-.857-.697-1.552-1.556-1.552h-2.508a12.2 12.2 0 0 0-9.219 4.135l-.056.062-.05.05c-.192.193-.4.37-.622.527l-.187.13c-.199.128-.407.24-.622.336l-.1.05-.243.105a4.19 4.19 0 0 1-.467.143l-.267.062a4.642 4.642 0 0 1-.915.093h-.274a4.51 4.51 0 0 1-.623-.08c-.13 0-.236-.056-.367-.094a3.742 3.742 0 0 1-.38-.118l-.28-.117-.112-.056a4.678 4.678 0 0 1-.541-.31l-.162-.162a4.725 4.725 0 0 1-.56-.497l-.118-.124a12.388 12.388 0 0 0-9.225-4.117H3.112V9.915h3.884v29.233c0 .857.697 1.552 1.557 1.552h9.679a14.911 14.911 0 0 1 11.098 4.967 1.558 1.558 0 0 0 2.639-.547 1.55 1.55 0 0 0-.317-1.52 18.027 18.027 0 0 0-13.42-6.035h-8.123V3.123h8.123a14.907 14.907 0 0 1 10.7 4.539v3.545c0 .858.696 1.553 1.556 1.553.859 0 1.556-.695 1.556-1.553V7.656a14.907 14.907 0 0 1 10.7-4.54h8.129v12.89c0 .858.696 1.553 1.556 1.553.86 0 1.556-.695 1.556-1.552V9.916h3.903v26.748c0 .858.696 1.553 1.556 1.553.86 0 1.556-.695 1.556-1.553V9.158c0-.622-.248-1.22-.69-1.66a2.356 2.356 0 0 0-1.663-.687h-4.662V1.552C53.985.695 53.288 0 52.429 0h-9.68A18.038 18.038 0 0 0 30.5 4.824 18.038 18.038 0 0 0 18.232.02h-9.68C7.7.02 7.007.703 6.996 1.553v5.24H2.353c-.627 0-1.229.25-1.67.695A2.344 2.344 0 0 0 0 9.158V45.99a2.35 2.35 0 0 0 2.353 2.347l15.443-.006z" id="Shape"/><path d="M50.603 34.534a14.085 14.085 0 0 0-4.216-17.826 14.082 14.082 0 0 0-18.262 1.417 14.085 14.085 0 0 0 16.408 22.48l9.134 9.135a4.295 4.295 0 1 0 6.077-6.07l-9.14-9.136zM30.35 35.831A10.952 10.952 0 0 1 42.284 17.97a10.952 10.952 0 0 1-4.192 21.07 10.875 10.875 0 0 1-7.743-3.208zm27.177 11.691a1.19 1.19 0 0 1-1.642 0l-8.67-8.696c.294-.25.583-.507.858-.783.276-.276.533-.564.783-.858l8.67 8.696a1.16 1.16 0 0 1 0 1.641z" id="Shape"/></g></g></svg>
